icons/plexis/48/gitg.svg

<svg viewBox="0 0 48 48" xmlns="http://www.w3.org/2000/svg" xmlns:xlink="http://www.w3.org/1999/xlink">
  <linearGradient id="a" gradientTransform="matrix(0 -1 1 0 -.0000015 47.999998)" gradientUnits="userSpaceOnUse" x1="1" x2="47">
    <stop offset="0" stop-color="#e4e4e4"/>
    <stop offset="1" stop-color="#eee"/>
  </linearGradient>
  <path d="m47 24c0 22.703-.297 23-23 23-22.703 0-23-.297-23-23 0-22.703.297-23 23-23 22.703 0 23 .297 23 23z" fill="url(#a)"/>
  <path d="m24 9c-3.844 0-7.664 1.469-10.598 4.398-5.871 5.855-5.871 15.352 0 21.21 5.867 5.855 15.332 5.855 21.2 0 5.867-5.859 5.867-15.355 0-21.21-2.934-2.93-6.754-4.398-10.598-4.398m-.004 0" opacity=".1" transform="translate(1 1)"/>
  <g transform="translate(.00025)">
    <path d="m24 9c-3.844 0-7.664 1.469-10.598 4.398-5.871 5.855-5.871 15.352 0 21.21 5.867 5.855 15.332 5.855 21.2 0 5.867-5.859 5.867-15.355 0-21.21-2.934-2.93-6.754-4.398-10.598-4.398m-.004 0" fill="#d4201e"/>
    <path d="m15 19h17v1.996h-17m0-1.996" fill="#f9f9f9"/>
    <path d="m25 20c0 1.656-1.344 3-3 3-1.66 0-3-1.344-3-3 0-1.656 1.344-3 3-3 1.656 0 3 1.344 3 3m0 0" fill="#f9f9f9"/>
    <path d="m33 20c0 1.656-1.344 3-3 3-1.66 0-3-1.344-3-3 0-1.656 1.344-3 3-3 1.656 0 3 1.344 3 3m0 0" fill="#f9f9f9"/>
    <path d="m33 28c0 1.656-1.344 3-3 3-1.66 0-3-1.344-3-3 0-1.656 1.344-3 3-3 1.656 0 3 1.344 3 3m0 0" fill="#f9f9f9"/>
    <path d="m30.734 30l-10.734-10.738 1.262-1.262 10.734 10.734m-1.262 1.266" fill="#f9f9f9"/>
  </g>
</svg>

<svg xmlns="http://www.w3.org/2000/svg" viewBox="0 0 48 48">
 <defs>
  <linearGradient id="linearGradient3764" x1="1" x2="47" gradientUnits="userSpaceOnUse" gradientTransform="matrix(0,-1,1,0,-1.5e-6,47.999998)">
   <stop style="stop-color:#e4e4e4;stop-opacity:1"/>
   <stop offset="1" style="stop-color:#eee;stop-opacity:1"/>
  </linearGradient>
 </defs>
 <g>
  
  
  
 </g>
 <g>
  <path d="m 47,24 C 47,46.703 46.703,47 24,47 1.297,47 1,46.703 1,24 1,1.297 1.297,1 24,1 46.703,1 47,1.297 47,24 z" style="fill:url(#linearGradient3764);fill-opacity:1"/>
 </g>
 <g>
  <g>
   <g transform="translate(1,1)">
    <g style="opacity:0.1">
     <!-- color: #eeeeee -->
     <g>
      <path d="m 24 9 c -3.844 0 -7.664 1.469 -10.598 4.398 c -5.871 5.855 -5.871 15.352 0 21.21 c 5.867 5.855 15.332 5.855 21.2 0 c 5.867 -5.859 5.867 -15.355 0 -21.21 c -2.934 -2.93 -6.754 -4.398 -10.598 -4.398 m -0.004 0" style="fill:#000;fill-opacity:1;stroke:none;fill-rule:nonzero"/>
     </g>
    </g>
   </g>
  </g>
 </g>
 <g transform="translate(2.5e-4,0)">
  <g>
   <!-- color: #eeeeee -->
   <g>
    <path d="m 24,9 c -3.844,0 -7.664,1.469 -10.598,4.398 -5.871,5.855 -5.871,15.352 0,21.21 5.867,5.855 15.332,5.855 21.2,0 5.867,-5.859 5.867,-15.355 0,-21.21 C 31.668,10.468 27.848,9 24.004,9 M 24,9" style="fill:#d4201e;fill-opacity:1;stroke:none;fill-rule:nonzero"/>
    <path d="m 15,19 17,0 0,1.996 -17,0 M 15,19" style="fill:#f9f9f9;fill-opacity:1;stroke:none;fill-rule:nonzero"/>
    <path d="m 25 20 c 0 1.656 -1.344 3 -3 3 -1.66 0 -3 -1.344 -3 -3 0 -1.656 1.344 -3 3 -3 1.656 0 3 1.344 3 3 m 0 0" style="fill:#f9f9f9;fill-opacity:1;stroke:none;fill-rule:nonzero"/>
    <path d="m 33 20 c 0 1.656 -1.344 3 -3 3 -1.66 0 -3 -1.344 -3 -3 0 -1.656 1.344 -3 3 -3 1.656 0 3 1.344 3 3 m 0 0" style="fill:#f9f9f9;fill-opacity:1;stroke:none;fill-rule:nonzero"/>
    <path d="m 33 28 c 0 1.656 -1.344 3 -3 3 -1.66 0 -3 -1.344 -3 -3 0 -1.656 1.344 -3 3 -3 1.656 0 3 1.344 3 3 m 0 0" style="fill:#f9f9f9;fill-opacity:1;stroke:none;fill-rule:nonzero"/>
    <path d="M 30.734,30 20,19.262 21.262,18 31.996,28.734 M 30.734,30" style="fill:#f9f9f9;fill-opacity:1;stroke:none;fill-rule:nonzero"/>
   </g>
  </g>
 </g>
 <g>
  
 </g>
</svg>
